X: 1
T: Hornpipe
T: Good For the Tongue
T: Jenkin's Hornpipe
T: the Ston(e)y Steps
T: Washington Hornpipe
O: USA, early 1800s
F: http://www.asaplive.com/archive/detail.asp?id=R0501301
F: http://www.asaplive.com/archive/show_images.asp?id=R0501301&image=1
F: http://www.asaplive.com/farneimages/jpgs/R0501200.jpg
N: In an anonymous tune book from NE England, signed "C.J.Surtees", dated 1819, just titled "Hornpipe".
R: hornpipe, reel
Z: 2015 John Chambers <jc:trillian.mit.edu>
M: C|
L: 1/8
K: C
% - - - - - - - - - - - - - - - - - - - -
|: cdef gcBc | acbc c'cBc | Af Ge Fd Ec | Acfd cBAG |
y  cdeg gcBc | acbc c'cBc | Af Ge Fd Ec | edcB c4 :|
|: gcBc acBc | abc'b a^gae | a^gae fefc | Bdgd cBAG |
y  cdef gcBc | acbc c'cBc | Af Ge Fd Ec | edcB c4 :|
% - - - - - - - - - - - - - - - - - - - -
